X:1
T:Romance
T:Intermezzo
T:Op. 35, No. 11
T:Reinhold Gliére
C:Reinhold Gliére
%%score 1 2 { 3 | 4 }
L:1/8
Q:1/4=60
M:2/4
K:Eb
V:1 treble transpose=-7 nm="Horn in F" snm="F Hn."
V:2 treble nm="Oboe" snm="Ob."
V:3 treble nm="Piano" snm="Pno."
V:4 bass 
V:1
[K:Bb]"^Andantino cantabile" z4 | z4 | z!mf!!<(! F d2- | d!<)!!>(!(e (3cBA)!>)! | z!<(! F d2- | %5
 d!<)!!>(!(e (3cBA)!>)! | z!<(! B f2- | f!<)!(e (3G_AB) | (c3 d |!>(! G4)!>)! | z!p! B, G2- | %11
 G(_A (3FED) | z"_cresc." C c2- | c(_d (3B_AG) | z F f2- | f(g (3fed- | (3d)(fe- (3eB_G- | %17
!>(! (3!breath!G)(EF (3_Gdc)!>)! |!mf!!<(! (F4 | ^F2 e2)!<)! | (d2 cB) | (A2- (3ABc) | %22
 (d2- (3dB_A) | G2 F2 |!<(! =E4- | E4!<)! | z"_cresc." =E ^c2- | c(d (3=ed^c) | z (^f ^F2-) | F4 | %30
 z (^f (3^F=B^A | A4) | z f F2- | (3F(B,C (3DFE- | (3ED=B,- (3B,CF) | z!f!!<(! F d2- | %36
 d!<)!!>(!(e (3cBA)!>)! | z!<(! F d2- | d!<)!!>(!(e (3cBA)!>)! | z!<(! B f2- | f!<)!(e (3G_AB) | %41
 (c3 d |!>(! G4)!>)! |!mf! z (B, G2- | G)(_A (3FED) |"_cresc." z C c2- | c(_d (3B_AG) | z F f2- | %48
 f(g (3fed- | (3d)fe- (3e(GA | (3^Fdc- (3cAB) |"_dim." B4- | (3B(B,_D (3F_A_G-) | %53
!>(! (3(G2 =E2 F2)!>)! | z!mf! (F d2-) |"_dim." d(e (3cBA) | z (F d2-) | d(e (3cBA) | z!mp! F d2- | %59
 d4- | d!p! (F, D2-) |!>(! D2- D!>)! z |] %62
V:2
 z4 | z4 | z2!pp! G2- | G2 A2- | A2 G2- | G2 A2- | A2 B2- | B2 A2- | A2 f2- | f2 =e2 | _e4 | =e4 | %12
 f4 | c4 |!>(! B4!>)! | A2 =E2 | G2 E2 | _c2 D2 | z!mf!!<(! B g2- | g!<)!!>(!(a (3fed)!>)! | %20
 z!mf!!<(! B g2- | g!<)!!>(!(a (3fed)!>)! | z B g2- | g(a (3c_de) |!<(! (f3 g | =a4)!<)! | %26
!mp! =a4 |"_cresc." (=a2 =e2) |!p! (^d2 =b2) | z (=b =B2) | (=B2 =b2) | z (_b B2) | z2 ed | c4 | %34
 _c2 B2 |!<(! B4!<)! |!>(! _c4!>)! |!<(! G4!<)! |!>(! _c4!>)! |!<(! e4!<)! |!>(! g4!>)! | f4 | %42
!>(! c4!>)! |!mf! c4 |!>(! ^c4!>)! |"_cresc." A4 | e4 | _d4 | B4 | e4 | G4 |"_dim." ^F4- | F z z2 | %53
 D4 |!mf! (G4 |"_dim." A4) | (g4 | a4) |!mp! (g4 | e4) |!p! E4- | E2- E z |] %62
V:3
 z!mf!!<(! (B, G2- | G)!<)!!>(!(A (3FED)!>)! |!p! z2 [G,B,EG]2 | z2 [A,_CDA]2 | z2 [G,B,EG]2 | %5
 z2 [A,_CDA]2 | z2 [_DEB]2 | z2 [CEA]2 | z2 [FB_df]2 | z2 [=EBc=e]2 |!p! (3:2:2[Ee]4 [Ac]2 | %11
 (3:2:2[=E=e]4 [B_d]2 | (3:2:2[Ff]4 [A_d]2 | (3:2:2[cc']4 [e=a]2 | (3:2:2[Bb]4 [_d_g]2 | %15
 [FB_df]2 [=EBc=e]2 | z2 (3[E_c][Ae][ca] | [e_c'] z [A,D]2 | z [B,B] [Gg]2- | %19
 [Gg][Ag] (3[Ff][Ee][Dd] | z [B,B] [Gg]2- | [Gg][Aa] (3[Ff][Ee][Dd] | z [Ee] [Bb]2- | %23
 [Bb][Aa] (3[Cc][_D_d][Ee] | [Ff]3 [Gg] | [=A=a]4 | [=Ad^f=a]4 | ([=A=e=a]2 [=EAe]2) | %28
 ([E=Be]2 [Be=b]2) | z [=Bdg=b] [=B,GB]2 | ([=B,=EA=B]2 [B=e=b]2) | z [Bab] [B,FB]2 | %32
 z2 (!tenuto![EBe]!tenuto![DBd]) | [CEc]4 | [_CD_c]2 [B,DAB]2 | %35
 (3[B,EGB][B,EGB][B,EGB] (3[B,EGB][B,EGB][B,EGB] | (3[_CDF_c][CDFc][CDFc] (3[A,CDA][A,CDA][A,CDA] | %37
 (3[G,B,EG][G,B,EG][G,B,EG] (3[G,B,EG][G,B,EG][Begb] | %38
 (3[_cdf_c'][cdfc'][cdfc'] (3[Acda][Acda][Acda] | (3[Geg][Geg][Geg] (3[Gdg][Gdg][G_dg] | %40
 (3[Gcg][Gcg][Gcg] (3[Gcg][Gcg][_Gc_g] | (3[Fcf][Fcf][Fcf] (3[=B,F=B][B,FB][B,FB] | %42
 (3[C=EBc][CEBc][CEBc] (3[CEBc][CEBc][CEBc] | (3[CEAc][CEAc][CEAc] (3[CEAc][CEAc][CEAc] | %44
 (3[B,=EB][B,EB][B,EB] (3[B,EB][B,EB][B,EB] |"_cresc." (3[A,FA][F_df][Fdf] (3[Fdf][Fdf][Fdf] | %46
 (3[E=Ae][EAe][EAe] (3[EAe][EAe][EAe] | (3[_DB_d][Bdb][Bdb] (3[Ada][Ada][Ada] | %48
 (3[Geg][Geg][Geg] (3[ege'][eae'][ebe'] | (3[EBe][EGe][EAe] [A,EA]2 | ([=B,G]2 C2) | %51
"_dim." [_CE]4- | [CE] z z2 |!>(! [F,A,D]4!>)! |!mf! ([G,EG]4 |"_dim." [F,A,_C]4) | ([GBeg]4 | %57
 [A_c]4) |!mp! ([gbe'g']4 | [GBeg]4) |!p! [G,B,EG]4- |!>(! [G,B,EG]2- [G,B,EG]!>)! z |] %62
V:4
 z4 | z4 |!ped! (3E,,B,,E, z2!ped-up! | (3E,,_C,D, z2 | (3E,,B,,E, z2 | (3E,,_C,D, z2 | %6
 (3E,,B,,G, z2 | (3A,,E,A, z2 | (3G,,F,B, z2 | (3C,,G,,=E, z2 |!p! (3A,,E,A, C2 | (3C,,G,,C, B,2 | %12
 (3_D,,A,,F, A,2 | (3F,,E,=A, E2 | (3_G,,_D,B, _D2 | (3G,,F,B, (3C,B,=E | (3F,-A,-_C- [F,A,C]2- | %17
 [F,A,C] z B,,2 | (3(E,,B,,G, E2) | (3(E,,D,F, _C2) | (3(E,,B,,G, E2) | (3(E,,_C,F, _C2) | %22
 (3(E,,B,,G, _D2) | (3(A,,C,C) (3(_G,,E,B,) | (3(F,,C,=A, C2) | (3(E,,=A,,G, ^C2) | %26
 (3(D,,=A,,^F, D2) | (3(C,,C,=E, =A,2) | (3([=B,,,=B,,]^F,=A, E2) | (3([G,,,G,,]D,G, D2) | %30
 (3(=E,,=B,,=E, A,2) | (3(F,,B,,D, A,2) | (3G,,-E,-B,- [G,,E,B,]2 | [A,,E,]4 | [B,,A,]4 | %35
 z/ (E,,/B,,/G,/) z/ (G,/B,,/E,,/) | z/ (E,,/_C,/F,/) z/ (F,/C,/E,,/) | %37
 z/ (E,,/B,,/G,/) z/ (G,/B,,/E,,/) | z/ (E,/_C/F/) z/ (F/C/E,/) | z/ (E,/B,/E/) z/ (E/B,/E,/) | %40
 z/ (A,,/E,/C/) z/ (C/E,/A,,/) | z/ (F,/A,,/_D,,/) z/ (G,/D,/G,,/) | %42
 z/ (G,,/=E,/B,/) z/ (B,/E,/G,,/) | z/ (A,,/E,/A,/) z/ (A,/E,/A,,/) | %44
 z/ (C,,/G,,/=E,/) z/ (E,/G,,/C,,/) | z/ (_D,,/A,,/F,/) z/ (F,/A,,/D,,/) | %46
 z/ (F,,/C,/=A,/) z/ (A,/C,/F,,/) | z/ (B,/_D,/_G,,/) z/ (A,/B,,/_F,,/) | %48
 z/ (G,/B,,/E,,/) z/ (E/B,/_D,/) | z/ (C,/A,/E/) z/ (F,,/C,/F,/) | ([G,,F,]2 [A,,^F,]2) | %51
 (3[=A,,_G,](=A,,,E,, (3_G,,_C,E, | _G,) z z2 |!>(! [B,,,B,,]4!>)! |!mf! ([E,,B,,E,]4 | %55
"_dim." [E,,_C,D,]4) | ([E,B,E]4 | [E,_CD]4) |[K:treble]!mp! ([EBe]4 |[K:bass] [E,B,E]4) | %60
!p! [E,,B,,E,]4- |!>(! [E,,,E,,B,,E,]2- [E,,,E,,B,,E,]!>)! z |] %62

